narrow.svg

<svg xmlns="http://www.w3.org/2000/svg" width="384" height="384" viewBox="0 0 101.60012 101.6">
  <circle cx="50.799995" cy="50.800018" r="44.449997" fill="none" stroke="#fff" stroke-dashoffset="84.6667" stroke-width="4.445" paint-order="stroke markers fill"/>
  <path fill="#f5f5f5" d="M0 0h101.6v101.6H0z" paint-order="stroke markers fill"/>
  <circle cx="50.799995" cy="50.800018" r="42.333332" fill="#cbc1e8" stroke="#cbc1e8" stroke-dashoffset="84.6667" stroke-width=".264583" paint-order="stroke markers fill"/>
  <g fill="#7464a0" stroke="#7464a0" stroke-width=".264583">
    <path d="m33.866665 33.866675-16.93334 20.10833v13.75834l16.93334-20.10834M84.666668 33.866685l-16.933336 20.10832v13.75834l16.933336-20.10834M33.866668 84.666678V67.733335h8.466664v16.933343zM59.266662 33.866675V16.933342h8.46667v16.933333z"/>
  </g>
  <path fill="#e8e6ef" d="M19.607073 6.8e-7 16.933334 3.1750006 6.8e-7 23.283334v13.758333L16.933334 16.933334 31.192928 6.8e-7Zm14.259594 0V33.866667h8.466666V6.8e-7Zm11.140405 0L59.266667 16.933334h8.466666L81.992927 6.8e-7H70.407072L67.733333 3.1750006V6.8e-7h-8.466666V3.1750006L56.592928 6.8e-7ZM101.6 13.758334 84.666666 33.866667V47.625L101.6 27.516667ZM16.933334 53.975 6.8e-7 74.083333v13.758333L16.933334 67.733333ZM101.6 64.558333 84.666666 84.666666 70.407072 101.6h11.585855l2.673739-3.175001L101.6 78.316666Zm-42.333333 3.175V101.6h8.466666V67.733333Zm-25.4 16.933333L19.607073 101.6h11.585855l2.673739-3.175001V101.6h8.466666v-3.175001L45.007072 101.6h11.585856L42.333333 84.666666Z"/>
  <path fill="#9288ad" stroke="#9288ad" stroke-width=".264583" d="m52.157539 8.4909726 7.109127 8.4423784h8.466666l2.951758-3.505729a42.333333 42.333333 0 0 0-18.527551-4.9366494Zm-9.824206.856795a42.333333 42.333333 0 0 0-8.466667 2.6856244v21.833292h8.466667V16.933351ZM87.769838 30.181639l-3.10317 3.685045v13.758333l6.90604-8.200532a42.333333 42.333333 0 0 0-3.80287-9.242846zM16.933333 53.975017l-6.887435 8.178829a42.333333 42.333333 0 0 0 3.795633 9.251114l3.091802-3.671609zm42.333333 13.758334V92.252268a42.333333 42.333333 0 0 0 8.466666-2.68563V67.733351zm-25.4 16.933337-2.932636 3.48247a42.333333 42.333333 0 0 0 18.485691 4.93252l-7.086388-8.41499z"/>
  <path fill="#332e3f" stroke="#332e3f" stroke-width=".264583" d="m33.866665 67.733345-.000001-33.86667h8.466666l16.933335 20.10833-.000001-20.10833h8.466666l.000002 33.86667h-8.466667l-16.933333-20.10834-.000001 20.10834z"/>
</svg>

<?xml version="1.0" encoding="UTF-8"?>
<svg width="384" height="384" version="1.1" viewBox="0 0 101.6 101.6" xmlns="http://www.w3.org/2000/svg">
<circle cx="50.8" cy="50.8" r="44.45" fill="none" stroke="#fff" stroke-dashoffset="84.667" stroke-width="4.445" paint-order="stroke markers fill"/>
<circle cx="50.8" cy="50.8" r="42.333" fill="#cbc1e8" stroke="#cbc1e8" stroke-dashoffset="84.667" stroke-width=".26458" paint-order="stroke markers fill"/>
<g fill="#7464a0" stroke="#7464a0" stroke-width=".26458">
<path d="m33.867 33.867-16.933 20.108v13.758l16.933-20.108m50.8-13.758-16.933 20.108v13.758l16.933-20.108m-50.8 37.042v-16.933h8.4667v16.933zm25.4-50.8v-16.933h8.4667v16.933z"/>
</g>
<path d="m19.607 6.8e-7 -19.607 23.283v13.758l31.193-37.042zm14.26 0v33.867h8.4667v-33.867zm11.14 0 14.26 16.933h8.4667l14.26-16.933h-11.586l-2.6737 3.175v-3.175h-8.4667v3.175l-2.6737-3.175zm56.593 13.758-16.933 20.108v13.758l16.933-20.108zm-84.667 40.217-16.933 20.108v13.758l16.933-20.108zm84.667 10.583-31.193 37.042h11.586l19.607-23.283zm-42.333 3.175v33.867h8.4667v-33.867zm-25.4 16.933-14.26 16.933h11.586l2.6737-3.175v3.175h8.4667v-3.175l2.6737 3.175h11.586l-14.26-16.933z" fill="#e8e6ef" fill-opacity=".5"/>
<path d="m52.158 8.491 7.1091 8.4424h8.4667l2.9518-3.5057a42.333 42.333 0 0 0-18.528-4.9366zm-9.8242 0.8568a42.333 42.333 0 0 0-8.4667 2.6856v21.833h8.4667v-16.933zm45.437 20.834-3.1032 3.685v13.758l6.906-8.2005a42.333 42.333 0 0 0-3.8029-9.2428zm-70.837 23.793-6.8874 8.1788a42.333 42.333 0 0 0 3.7956 9.2511l3.0918-3.6716zm42.333 13.758v24.519a42.333 42.333 0 0 0 8.4667-2.6856v-21.833zm-25.4 16.933-2.9326 3.4825a42.333 42.333 0 0 0 18.486 4.9325l-7.0864-8.415z" fill="#9288ad" stroke="#9288ad" stroke-width=".26458"/>
<path d="m33.867 67.733-1e-6 -33.867h8.4667l16.933 20.108-1e-6 -20.108h8.4667l2e-6 33.867h-8.4667l-16.933-20.108-1e-6 20.108z" fill="#332e3f" stroke="#332e3f" stroke-width=".26458"/>
</svg>
